src/lib/packages/icons/src/assets/filled/chat-notification.svg

<svg width="24" height="24" viewBox="0 0 24 24" fill="none" xmlns="http://www.w3.org/2000/svg">
<path d="M20.3011 8.53101C20.9431 10.049 21.1761 11.787 20.8611 13.606C20.3041 16.817 17.9591 19.529 14.8611 20.54C12.5121 21.307 10.175 21.069 8.24101 20.17C7.80101 19.96 7.29109 19.96 6.82109 20.11L4.32109 20.95C3.53609 21.214 2.78707 20.465 3.05107 19.68L3.89115 17.18C4.04115 16.71 4.0411 16.2 3.8311 15.76C2.9311 13.825 2.69393 11.486 3.46293 9.13501C4.47493 6.03801 7.18797 3.69498 10.399 3.13898C12.217 2.82498 13.953 3.05697 15.471 3.69897C15.614 3.75997 15.6751 3.91997 15.6311 4.06897C15.5281 4.41597 15.4881 4.78602 15.5061 5.17102C15.5831 6.93402 17.0661 8.41797 18.8291 8.49597C19.2151 8.51297 19.5851 8.47397 19.9331 8.37097C20.0801 8.32597 20.2401 8.38801 20.3011 8.53101ZM19 7C20.104 7 21 6.105 21 5C21 3.895 20.104 3 19 3C17.896 3 17 3.895 17 5C17 6.105 17.896 7 19 7Z" fill="currentColor"/>
</svg>

<svg xmlns="http://www.w3.org/2000/svg" width="24" height="24" fill="none"><path fill="currentColor" d="M20.301 8.531c.642 1.518.875 3.256.56 5.075-.557 3.211-2.902 5.923-6 6.934-2.349.767-4.686.529-6.62-.37-.44-.21-.95-.21-1.42-.06l-2.5.84a1.003 1.003 0 0 1-1.27-1.27l.84-2.5c.15-.47.15-.98-.06-1.42-.9-1.935-1.137-4.274-.368-6.625 1.012-3.097 3.725-5.44 6.936-5.996 1.818-.314 3.554-.082 5.072.56.143.061.204.221.16.37a3.316 3.316 0 0 0-.125 1.102c.077 1.763 1.56 3.247 3.323 3.325.386.017.756-.022 1.104-.125a.298.298 0 0 1 .368.16ZM19 7a2 2 0 1 0 0-4 2 2 0 0 0 0 4Z"/></svg>
